X:365
T:The Old Torn Petticoat
M:4/4
L:1/8
K:ADor
AB|c2 Bc AEEE|G2 BG dGBG|c2 Bc AEEE|GABG A2 AB|
cc Bc AEEE|G2 BG dGBG|c2 Bc AEEE|GABG A2 AB :|
cdef g2 ea|aged cAAB|cdef gedg|eaaa aaga|
bagb agef|g3 e dBGB|c2 Bd BEEE|GABG A2 AB :|
